X:12
T:Have a Drink with Me
R:jig
D:Patrick Street 1.
Z:id:hn-jig-12
M:6/8
K:G
BAG E2D|EGD EGA|BAB GED|EAA ABc|BAG E2D|EGD EGA|BAB GED|EGG G3:|
|:GBd e2d|dgd B2A|GBd edB|cea ~a3|bag age|ged ege|dBG ABc|BGG G3:|
<end>
<start>
